X:82
M:6/8
L:1/8
K:D
|: c | ecA dfd | BdB GGf | gec fF^A | (B3 B2) c | dBF GEd | eBe cBA | dAF BGA | (D3 D2) :|

